!!!!SEGMENT: pl-cz--iii-323--003_namieyski-jan--sinfonia-d-thaema.krn
!!!cenid: 17xx:996
!!!COM: Namieyski, Jan
!!!COM-rismID: pe30017685
!!!CDT: <1750->1799
!!!CNT: Polish
!!!OPR: Sinfonia D
!!!OTL: Thaema
!!!OMV: 003
!!!PDT:
!!!AGN: Secular
!!!SMS-siglum: PL-CZ
!!!SMS-shelfmark: III-323
!!!SMS-shelfwork: 001-003 M
!!!SMS-variant:
!!!SMS-altvar:
!!!NIFC-rismSourceID: 300000906
!!!NIFC-islandoraID: pl-cz:37604
!!!URL-pdf-islandora: https://repozytorium.nifc.pl/islandora/object/pl-cz%3A37604/datastream/PDF/view
!!!URL-scan:
!!!ONB-nifc: UWAGA: części Sinfonii: Allegro moderato, Menuetto (002), Thaema (z wariacjami), Menuetto (004), Allegro
!!!AIN: 1 cbass 2 clars 2 cor 2 flt 1 viola 2 violn
!!!key: D
**kern	**dynam	**kern	**dynam	**kern	**dynam	**kern	**dynam	**kern	**kern	**dynam	**kern	**kern	**dynam	**kern	**kern	**dynam
*part10	*part10	*part9	*part9	*part8	*part8	*part7	*part7	*part6	*part5	*part5	*part4	*part3	*part3	*part2	*part1	*part1
*group3	*	*group3	*	*group3	*	*group3	*	*group2	*group2	*	*group1	*group1	*	*group1	*group1	*
*staff10	*	*staff9	*	*staff8	*	*staff7	*	*staff6	*staff5	*	*staff4	*staff3	*	*staff2	*staff1	*
*I"Baſso	*	*I"Viola. Oblig	*	*I"Violino Secundo.	*	*I"Violino Primo.	*	*I"Cornu Secundo in D:	*I"Cornu Primo in. D##.	*	*I"Clarinetto Secudo in A:	*I"Clarinetto Primo in A.	*	*I"Flauto Secundo	*I"Flauto Primo.	*
*I'cb	*	*I'vla	*	*I'vl 2	*	*I'vl 1	*	*I'cor 2	*I'cor 1	*	*I'cl 2	*I'cl 1	*	*I'fl 2	*I'fl 1	*
*Icbass	*	*Iviola	*	*Ivioln	*	*Ivioln	*	*Icor	*Icor	*	*Iclars	*Iclars	*	*Iflt	*Iflt	*
*ICstr	*	*ICstr	*	*ICstr	*	*ICstr	*	*ICbras	*ICbras	*	*ICww	*ICww	*	*ICww	*ICww	*
*clefF4	*	*clefC3	*	*clefG2	*	*clefG2	*	*clefG2	*clefG2	*	*clefG2	*clefG2	*	*clefG2	*clefG2	*
*ITrd0c0	*	*	*	*	*	*	*	*ITrd6c10	*ITrd6c10	*	*ITrd2c3	*ITrd2c3	*	*	*	*
*k[c#f#]	*	*k[c#f#]	*	*k[c#f#]	*	*k[f#c#]	*	*k[f#c#]	*k[f#c#]	*	*k[f#c#]	*k[f#c#]	*	*k[f#c#]	*k[f#c#]	*
*D:	*	*D:	*	*D:	*	*D:	*	*D:	*D:	*	*D:	*D:	*	*D:	*D:	*
*M2/4	*	*M2/4	*	*M2/4	*	*M2/4	*	*M2/4	*M2/4	*	*M2/4	*M2/4	*	*M2/4	*M2/4	*
!LO:TX:t=P:problem=przy kluczu błędnie E# zamiast F#	!	!	!	!LO:TX:a:B:t=Adagio&colon;	!	!LO:TX:t=P:znaki:problem= f# zamiast ff#	!	!LO:TX:a:t=M&colon;D&colon;E&colon;	!	!	!	!	!	!	!	!
!LO:TX:a:B:t=Adagio	!LO:DY:a:t=Semper piano	!LO:TX:t=P:problem=przy kluczu błędnie d# zamiast c#	!	!LO:TX:a:t=Con Sordini	!	!LO:TX:a:B:t=Adagio con Sordinis	!	!LO:TX:a:B:t=Adagio Tacet	!LO:TX:a:B:t=Tacet	!	!LO:TX:a:B:t=Adagio Tacet	!LO:TX:a:B:t=Adagio Tacet	!	!LO:TX:a:B:t=Tacet	!LO:TX:a:B:t=Tacet	!
8r	p	8r	.	8r	.	8a/	.	8ryy	8ryy	.	8ryy	8ryy	.	8ryy	8ryy	.
=1	=1	=1	=1	=1	=1	=1	=1	=1	=1	=1	=1	=1	=1	=1	=1	=1
!	!	!	!LO:DY:b:Bi:t=pia	!	!LO:DY:b:Bi:t=pia	!	!	!	!	!	!	!	!	!	!	!
4D\	.	4d\	p	4f#/	p	4dd\	.	2ryy	2ryy	.	2ryy	2ryy	.	2ryy	2ryy	.
4AA/	.	4e\	.	4g/	.	8cc#\L	.	.	.	.	.	.	.	.	.	.
.	.	.	.	.	.	8cc#\J	.	.	.	.	.	.	.	.	.	.
=2	=2	=2	=2	=2	=2	=2	=2	=2	=2	=2	=2	=2	=2	=2	=2	=2
4D\	.	4d\	.	4f#/	.	16dd\LL	.	2ryy	2ryy	.	2ryy	2ryy	.	2ryy	2ryy	.
.	.	.	.	.	.	16a\JJ	.	.	.	.	.	.	.	.	.	.
.	.	.	.	.	.	4a/	.	.	.	.	.	.	.	.	.	.
8D\L	.	8d\L	.	8f#/L	.	.	.	.	.	.	.	.	.	.	.	.
8G\J	.	8d\J	.	8g/J	.	8b/	.	.	.	.	.	.	.	.	.	.
!	!	!LO:LB:g=original	!	!	!	!	!	!	!	!	!	!	!	!	!	!
=3	=3	=3	=3	=3	=3	=3	=3	=3	=3	=3	=3	=3	=3	=3	=3	=3
!LO:TX:t=P:problem=mixed beam	!	!LO:TX:t=P:problem=mixed beam	!	!	!	!	!	!	!	!	!	!	!	!	!	!
8F#\L	.	8d\L	.	4f#/	.	8a/L	.	2ryy	2ryy	.	2ryy	2ryy	.	2ryy	2ryy	.
8D\	.	8d\	.	.	.	16f#/L	.	.	.	.	.	.	.	.	.	.
.	.	.	.	.	.	16d/JJ	.	.	.	.	.	.	.	.	.	.
!	!	!	!	!LO:SIC:v:s=8g/L	!	!	!	!	!	!	!	!	!	!	!	!
8E\	.	8A/	.	8f#/L	.	8g/L	.	.	.	.	.	.	.	.	.	.
8AA/J	.	8A/J	.	8e/J	.	8g/J	.	.	.	.	.	.	.	.	.	.
=4	=4	=4	=4	=4	=4	=4	=4	=4	=4	=4	=4	=4	=4	=4	=4	=4
4AA/	.	4d\	.	4e/	.	4g/	.	2ryy	2ryy	.	2ryy	2ryy	.	2ryy	2ryy	.
8D/	.	8A/	.	8d/	.	8f#/L	.	.	.	.	.	.	.	.	.	.
8r	.	8r	.	8r	.	8a/J	.	.	.	.	.	.	.	.	.	.
!LO:LB:g=original	!	!	!	!	!	!LO:LB:g=original	!	!	!	!	!	!	!	!	!	!
=5	=5	=5	=5	=5	=5	=5	=5	=5	=5	=5	=5	=5	=5	=5	=5	=5
4D\	.	4A/	.	4f#/	.	4dd\	.	2ryy	2ryy	.	2ryy	2ryy	.	2ryy	2ryy	.
!LO:TX:t=P:problem=mixed beam	!	!	!	!	!	!	!	!	!	!	!	!	!	!	!	!
8d\L	.	8d/L	.	8f#/L	.	8a\L	.	.	.	.	.	.	.	.	.	.
8D/J	.	8A/J	.	8d/J	.	8ff#\J	.	.	.	.	.	.	.	.	.	.
!	!	!	!	!LO:LB:g=original	!	!	!	!	!	!	!	!	!	!	!	!
=6	=6	=6	=6	=6	=6	=6	=6	=6	=6	=6	=6	=6	=6	=6	=6	=6
4A\	.	4A/	.	4c#/	.	8ee\L	.	2ryy	2ryy	.	2ryy	2ryy	.	2ryy	2ryy	.
.	.	.	.	.	.	(16cc#\L	.	.	.	.	.	.	.	.	.	.
.	.	.	.	.	.	16a\JJ)	.	.	.	.	.	.	.	.	.	.
4AA/	.	4r	.	8cc#\L	.	8ee\L	.	.	.	.	.	.	.	.	.	.
.	.	.	.	8cc#\J	.	8ee\J	.	.	.	.	.	.	.	.	.	.
=7	=7	=7	=7	=7	=7	=7	=7	=7	=7	=7	=7	=7	=7	=7	=7	=7
4D\	.	4f#\	.	16cc#\LL	.	(16ee\LL	.	2ryy	2ryy	.	2ryy	2ryy	.	2ryy	2ryy	.
.	.	.	.	16b\JJ	.	16dd\JJ)	.	.	.	.	.	.	.	.	.	.
.	.	.	.	4a/	.	4cc#\	.	.	.	.	.	.	.	.	.	.
4E\	.	8d\L	.	.	.	.	.	.	.	.	.	.	.	.	.	.
.	.	8d\J	.	8g#X/	.	8b\	.	.	.	.	.	.	.	.	.	.
=	=	=	=	=	=	=	=	=	=	=	=	=	=	=	=	=
!	!	!	!	!LO:SIC:v:s=4g#/	!	!	!	!	!	!	!	!	!	!	!	!
4E\	.	4d\	.	4g/	.	4b\	.	4.ryy	4.ryy	.	4.ryy	4.ryy	.	4.ryy	4.ryy	.
8A\	.	8c#\	.	8a/	.	8a\	.	.	.	.	.	.	.	.	.	.
=8:|!|:	=8:|!|:	=8:|!|:	=8:|!|:	=8:|!|:	=8:|!|:	=8:|!|:	=8:|!|:	=8:|!|:	=8:|!|:	=8:|!|:	=8:|!|:	=8:|!|:	=8:|!|:	=8:|!|:	=8:|!|:	=8:|!|:
!	!	!LO:TX:a:t=Solo	!	!	!	!	!	!	!	!	!	!	!	!	!	!
8r	.	8c#\	.	8e/	.	8a/	.	8ryy	8ryy	.	8ryy	8ryy	.	8ryy	8ryy	.
=9	=9	=9	=9	=9	=9	=9	=9	=9	=9	=9	=9	=9	=9	=9	=9	=9
!	!	!	!	!	!LO:DY:b:Bi:t=pia	!	!	!	!	!	!	!	!	!	!	!
4AA/	.	4c#\	.	4e/	p	4a/	.	2ryy	2ryy	.	2ryy	2ryy	.	2ryy	2ryy	.
4GG#X/	.	8d\L	.	8fn/L	.	8b-X/L	.	.	.	.	.	.	.	.	.	.
.	.	8d\J	.	8f/J	.	8b-/J	.	.	.	.	.	.	.	.	.	.
=10	=10	=10	=10	=10	=10	=10	=10	=10	=10	=10	=10	=10	=10	=10	=10	=10
*	*	*	*	*^	*	*	*	*	*	*	*	*	*	*	*	*
!LO:TX:t=P:problem=mixed beam	!	!	!	!LO:TX:t=P:problem=mixed beam	!	!	!LO:TX:t=P:problem=mixed beam	!	!	!	!	!	!	!	!	!	!
8AA/L	.	16c#\LL	.	16ryy	16e/LL	.	16a/LL	.	2ryy	2ryy	.	2ryy	2ryy	.	2ryy	2ryy	.
.	.	16A\JJ	.	16ee/	16cc#\JJ	.	16gg\JJ	.	.	.	.	.	.	.	.	.	.
8A\	.	4g 4A\	.	4ee/	4cc#\	.	4gg\	.	.	.	.	.	.	.	.	.	.
8c#\	.	.	.	.	.	.	.	.	.	.	.	.	.	.	.	.	.
8A\J	.	8e 8A\	.	8rddyy	8cc#\	.	8ee\	.	.	.	.	.	.	.	.	.	.
!	!	!LO:LB:g=original	!	!	!	!	!	!	!	!	!	!	!	!	!	!	!
=11	=11	=11	=11	=11	=11	=11	=11	=11	=11	=11	=11	=11	=11	=11	=11	=11	=11
.	.	.	.	.	.	.	8qqgg/	.	.	.	.	.	.	.	.	.	.
!	!	!	!	!	!	!LO:DY:b:Bi:t=pia	!	!	!	!	!	!	!	!	!	!	!
4D\	.	4f#\	.	4a/	4f#\	p	8ff#\L	.	2ryy	2ryy	.	2ryy	2ryy	.	2ryy	2ryy	.
.	.	.	.	.	.	.	16ee\L	.	.	.	.	.	.	.	.	.	.
.	.	.	.	.	.	.	16dd\JJ	.	.	.	.	.	.	.	.	.	.
4GG/	.	4B/	.	4g/	4reyy	.	16cc#\LL	.	.	.	.	.	.	.	.	.	.
.	.	.	.	.	.	.	16b\	.	.	.	.	.	.	.	.	.	.
.	.	.	.	.	.	.	16gg\	.	.	.	.	.	.	.	.	.	.
.	.	.	.	.	.	.	16ee\JJ	.	.	.	.	.	.	.	.	.	.
*	*	*	*	*v	*v	*	*	*	*	*	*	*	*	*	*	*	*
!	!	!	!	!	!	!LO:LB:g=original	!	!	!	!	!	!	!	!	!	!
=12	=12	=12	=12	=12	=12	=12	=12	=12	=12	=12	=12	=12	=12	=12	=12	=12
4AA/	.	4A/	.	4f#/	.	4dd\	.	2ryy	2ryy	.	2ryy	2ryy	.	2ryy	2ryy	.
8A\	.	8A/	.	8e/	.	8cc#\L	.	.	.	.	.	.	.	.	.	.
8r	.	8r	.	8r	.	8a\J	.	.	.	.	.	.	.	.	.	.
!LO:LB:g=original	!	!	!	!	!	!	!	!	!	!	!	!	!	!	!	!
=13	=13	=13	=13	=13	=13	=13	=13	=13	=13	=13	=13	=13	=13	=13	=13	=13
4D\	.	4d\	.	4f#/	.	4dd\	.	2ryy	2ryy	.	2ryy	2ryy	.	2ryy	2ryy	.
4AA/	.	4e\	.	4g/	.	8cc#\L	.	.	.	.	.	.	.	.	.	.
.	.	.	.	.	.	8cc#\J	.	.	.	.	.	.	.	.	.	.
!	!	!	!	!LO:LB:g=original	!	!	!	!	!	!	!	!	!	!	!	!
=14	=14	=14	=14	=14	=14	=14	=14	=14	=14	=14	=14	=14	=14	=14	=14	=14
4D\	.	4d\	.	4f#/	.	(16dd\LL	.	2ryy	2ryy	.	2ryy	2ryy	.	2ryy	2ryy	.
.	.	.	.	.	.	16a\JJ)	.	.	.	.	.	.	.	.	.	.
.	.	.	.	.	.	4a\	.	.	.	.	.	.	.	.	.	.
4F#\	.	8d\L	.	8f#/L	.	.	.	.	.	.	.	.	.	.	.	.
.	.	8f#\J	.	8a/J	.	16a\LL	.	.	.	.	.	.	.	.	.	.
.	.	.	.	.	.	16ccn\JJ	.	.	.	.	.	.	.	.	.	.
=15	=15	=15	=15	=15	=15	=15	=15	=15	=15	=15	=15	=15	=15	=15	=15	=15
4G\	.	4e\	.	4g/	.	4b\	.	2ryy	2ryy	.	2ryy	2ryy	.	2ryy	2ryy	.
!LO:TX:t=P:problem=mixed beam	!	!	!	!	!	!	!	!	!	!	!	!	!	!	!	!
8A\L	.	8G/L	.	8e/L	.	8c#X/L	.	.	.	.	.	.	.	.	.	.
8AA/J	.	8G/J	.	8e/J	.	8c#/J	.	.	.	.	.	.	.	.	.	.
!	!	!	!	!LO:LB:g=original	!	!	!	!	!	!	!	!	!	!	!	!
=	=	=	=	=	=	=	=	=	=	=	=	=	=	=	=	=
4AA/	.	4G/	.	4e/	.	4c#/	.	4.ryy	4.ryy	.	4.ryy	4.ryy	.	4.ryy	4.ryy	.
!LO:TX:b:t=Sique Variatia	!	!	!	!	!	!	!	!	!	!	!	!	!	!	!	!
8D/	.	8F#/	.	8d/	.	8d/	.	.	.	.	.	.	.	.	.	.
!LO:PB:g=original	!	!	!	!	!	!LO:LB:g=original	!	!	!	!	!	!	!	!	!	!
=16:|!	=16:|!	=16:||:!	=16:||:!	=16:|!	=16:|!	=16:|!	=16:|!	=16:|!	=16:|!	=16:|!	=16:|!	=16:|!	=16:|!	=16:|!	=16:|!	=16:|!
*k[c#f#]	*	*	*	*k[c#f#]	*	*k[f#c#]	*	*k[f#c#]	*k[f#c#]	*	*k[f#c#]	*k[f#c#]	*	*k[f#c#]	*k[f#c#]	*
*M2/4	*	*	*	*M2/4	*	*M2/4	*	*M2/4	*M2/4	*	*M2/4	*M2/4	*	*M2/4	*M2/4	*
!	!	!LO:TX:t=Solo	!	!	!	!	!	!	!	!	!	!	!	!	!	!
!	!	!LO:TX:b:t=a	!	!	!	!LO:TX:t=P:znaki:problem= f# zamiast ff#	!	!	!	!	!	!	!	!	!	!
!LO:TX:a:B:t=Varia Ima	!	!LO:TX:a:B:t=Varia Ima	!	!LO:TX:a:B:t=Ima\nVaria	!	!LO:TX:a:B:t=Ima\nVaria&colon;	!LO:DY:a:Bi:t=Semper pia	!LO:TX:a:B:t=Variatio Imo et 2do Tacet	!LO:TX:a:B:t=Variat Ima 2da Tac	!	!LO:TX:a:B:t=Varia Ima	!LO:TX:a:B:t=Ima\nVaria&colon;	!	!LO:TX:a:B:t=Variatia N Ima	!LO:TX:a:B:t=Variati N&colon; Imo	!
8r	.	8a\	.	8r	.	8r	p	8ryy	8ryy	.	8r	8r	.	8r	8r	.
=17	=17	=17	=17	=17	=17	=17	=17	=17	=17	=17	=17	=17	=17	=17	=17	=17
!	!LO:DY:b:Bi:t=p&colon;	!LO:TX:b:t=d	!	!	!LO:DY:b:Bi:t=pia	!	!	!	!	!	!	!	!LO:DY:b:Bi:t=pia	!LO:TX:t=P:\right:problem	!	!
16D\	p	16d\LL	.	16d/	p	16f#/	.	2ryy	2ryy	.	16dd\	16ff#\	p	16dd\	16ff#\	.
!	!	!LO:TX:b:t=d	!	!	!	!	!	!	!	!	!	!	!	!	!	!
16r	.	16dd\	.	16r	.	16r	.	.	.	.	16r	16r	.	16r	16r	.
!	!	!LO:TX:b:t=a	!	!	!	!	!	!	!	!	!	!	!	!	!	!
16d\	.	16a\	.	16d/	.	16f#/	.	.	.	.	16dd\	16ff#\	.	16dd\	16ff#\	.
!	!	!LO:TX:b:t=f	!	!	!	!	!	!	!	!	!	!	!	!	!	!
16r	.	16ff#\JJ	.	16r	.	16r	.	.	.	.	16r	16r	.	16r	16r	.
4D\	.	8.ff#\L	.	4d/	.	4f#/	.	.	.	.	4dd\	4ff#\	.	4dd\	4ff#\	.
!	!	!LO:TX:b:t=d	!	!	!	!	!	!	!	!	!	!	!	!	!	!
.	.	16dd\Jk	.	.	.	.	.	.	.	.	.	.	.	.	.	.
!	!	!	!	!	!	!	!	!	!	!	!	!	!	!LO:LB:g=original	!	!
=18	=18	=18	=18	=18	=18	=18	=18	=18	=18	=18	=18	=18	=18	=18	=18	=18
!	!	!LO:TX:b:t=g	!	!	!	!	!	!	!	!	!	!	!	!	!	!
16AA/	.	16gg\LL	.	16e/	.	16g/	.	2ryy	2ryy	.	16ee\	16gg\	.	16ee\	16gg\	.
!	!	!LO:TX:b:t=e	!	!	!	!	!	!	!	!	!	!	!	!	!	!
16r	.	16ee\	.	16r	.	16r	.	.	.	.	16r	16r	.	16r	16r	.
!	!	!LO:TX:b:t=c	!	!	!	!	!	!	!	!	!	!	!	!	!	!
16A\	.	16cc#\	.	16e/	.	16g/	.	.	.	.	16ee\	16gg\	.	16ee\	16gg\	.
!	!	!LO:TX:b:t=a	!	!	!	!	!	!	!	!	!	!	!	!	!	!
16r	.	16a\JJ	.	16r	.	16r	.	.	.	.	16r	16r	.	16r	16r	.
!	!	!LO:TX:b:t=g	!	!	!	!	!	!	!	!	!	!	!	!	!	!
4AA/	.	8.g\L	.	4e/	.	4g/	.	.	.	.	4ee\	4gg\	.	4ee\	4gg\	.
!	!	!LO:TX:b:t=a	!	!	!	!	!	!	!	!	!	!	!	!	!	!
.	.	16g\Jk	.	.	.	.	.	.	.	.	.	.	.	.	.	.
!	!	!LO:LB:g=original	!	!	!	!	!	!	!	!	!LO:LB:g=original	!	!	!	!	!
=19	=19	=19	=19	=19	=19	=19	=19	=19	=19	=19	=19	=19	=19	=19	=19	=19
!	!	!	!	!	!	!	!	!	!	!	!	!	!	!LO:TX:t=P:problem=brak taktu nr 22	!LO:TX:t=P:problem=brak taktu nr 22	!
4D\	.	16f#\LL	.	4f#/	.	(16g/LL	.	2ryy	2ryy	.	4dd\	4ff#\	.	2ryy	2ryy	.
.	.	16dd\	.	.	.	16f#/)	.	.	.	.	.	.	.	.	.	.
.	.	16dd\	.	.	.	16f#'/	.	.	.	.	.	.	.	.	.	.
.	.	16dd\JJ	.	.	.	16f#'/JJ	.	.	.	.	.	.	.	.	.	.
!	!	!	!	!	!	!LO:TX:t=P:problem=mixed beam	!	!	!	!	!	!	!	!	!	!
8C#\L	.	16ee\LL	.	8r	.	16g/LL	.	.	.	.	4r	4r	.	.	.	.
.	.	16dd\	.	.	.	16f#/	.	.	.	.	.	.	.	.	.	.
8D\J	.	16gg\	.	16g/LL	.	16ee\	.	.	.	.	.	.	.	.	.	.
!	!	!	!	!LO:SIC:v:s=16f#/JJ	!	!	!	!	!	!	!	!	!	!	!	!
.	.	16ff#\JJ	.	16e/JJ	.	16dd\JJ	.	.	.	.	.	.	.	.	.	.
!	!	!	!	!	!	!	!	!	!	!	!	!	!	!	!LO:LB:g=original	!
=20	=20	=20	=20	=20	=20	=20	=20	=20	=20	=20	=20	=20	=20	=20	=20	=20
8A\L	.	4ff#\	.	4f#/	.	(4dd\	.	2ryy	2ryy	.	4dd\	4ff#\	.	4dd\	4ff#\	.
8E\J	.	.	.	.	.	.	.	.	.	.	.	.	.	.	.	.
8AA/	.	8ee\L	.	8e/	.	8cc#\)	.	.	.	.	8cc#\	8ee\	.	8cc#\	8ee\	.
8r	.	8a\J	.	8r	.	8r	.	.	.	.	8r	8r	.	8r	8r	.
!LO:LB:g=original	!	!	!	!	!	!LO:LB:g=original	!	!	!	!	!	!	!	!	!	!
=21	=21	=21	=21	=21	=21	=21	=21	=21	=21	=21	=21	=21	=21	=21	=21	=21
16D\	.	16d\LL	.	16d/	.	16f#/	.	2ryy	2ryy	.	16dd\	16ff#\	.	16dd\	16ff#\	.
16r	.	16dd\	.	16r	.	16r	.	.	.	.	16r	16r	.	16r	16r	.
16d\	.	16a\	.	16d/	.	16f#/	.	.	.	.	16dd\	16ff#\	.	16dd\	16ff#\	.
16r	.	16ff#\JJ	.	16r	.	16r	.	.	.	.	16r	16r	.	16r	16r	.
4D\	.	8ff#\L	.	4d/	.	4f#/	.	.	.	.	4dd\	4ff#\	.	4dd\	4ff#\	.
.	.	8dd\J	.	.	.	.	.	.	.	.	.	.	.	.	.	.
!	!	!	!	!LO:LB:g=original	!	!	!	!	!	!	!	!LO:LB:g=original	!	!	!	!
=22	=22	=22	=22	=22	=22	=22	=22	=22	=22	=22	=22	=22	=22	=22	=22	=22
!LO:TX:t=P:problem=mixed beam	!	!	!	!	!	!LO:TX:t=P:problem=skreślony takt	!	!	!	!	!	!LO:TX:a:t=1	!	!	!	!
8A\L	.	16dd\LL	.	4e/	.	(16a\LL	.	2ryy	2ryy	.	2r	2r	.	2r	2r	.
.	.	16ee\	.	.	.	16cc#\)	.	.	.	.	.	.	.	.	.	.
8AA/	.	16ee\	.	.	.	16cc#'\	.	.	.	.	.	.	.	.	.	.
.	.	16ee\JJ	.	.	.	16cc#'\JJ	.	.	.	.	.	.	.	.	.	.
8A\	.	8.ee\L	.	8r	.	8.cc#\L	.	.	.	.	.	.	.	.	.	.
8G#X\J	.	.	.	8e/	.	.	.	.	.	.	.	.	.	.	.	.
.	.	16dd\Jk	.	.	.	16b\Jk	.	.	.	.	.	.	.	.	.	.
=23	=23	=23	=23	=23	=23	=23	=23	=23	=23	=23	=23	=23	=23	=23	=23	=23
16A\	.	16cc#\LL	.	16c#/	.	16a/	.	2ryy	2ryy	.	4r	4r	.	4r	4r	.
16r	.	16cc#m\	.	16r	.	16r	.	.	.	.	.	.	.	.	.	.
16A\	.	16ee\	.	16c#/	.	16a/	.	.	.	.	.	.	.	.	.	.
16r	.	16dd\JJ	.	16r	.	16r	.	.	.	.	.	.	.	.	.	.
16E\	.	16dd\LL	.	16d/	.	16a/	.	.	.	.	8dd\L	8gg#\L	.	8dd\L	8gg#X\L	.
16r	.	16b\	.	16r	.	16r	.	.	.	.	.	.	.	.	.	.
16E\	.	16b\	.	16d/	.	16b/	.	.	.	.	8dd\J	8gg#\J	.	8dd\J	8gg#\J	.
16r	.	16g#X\JJ	.	16r	.	16r	.	.	.	.	.	.	.	.	.	.
=	=	=	=	=	=	=	=	=	=	=	=	=	=	=	=	=
!	!	!	!	!	!	!	!	!	!	!	!	!LO:SIC:v:s=4gg#\	!	!	!LO:SIC:v:s=4gg#\	!
4E\	.	4g#X\	.	4d/	.	(4b/	.	4.ryy	4.ryy	.	4dd\	4gg\	.	4dd\	4gg\	.
8A\	.	8a\	.	8c#/	.	8a/)	.	.	.	.	8cc#\	8aa\	.	8cc#\	8aa\	.
=24:|!|:	=24:|!|:	=24:|!|:	=24:|!|:	=24:|!|:	=24:|!|:	=24:|!|:	=24:|!|:	=24:|!|:	=24:|!|:	=24:|!|:	=24:|!|:	=24:|!|:	=24:|!|:	=24:|!|:	=24:|!|:	=24:|!|:
8r	.	8a\	.	8r	.	8r	.	8ryy	8ryy	.	8r	8r	.	8r	8r	.
!	!	!LO:LB:g=original	!	!	!	!	!	!	!	!	!	!	!	!	!	!
=25	=25	=25	=25	=25	=25	=25	=25	=25	=25	=25	=25	=25	=25	=25	=25	=25
!	!	!	!	!	!	!	!	!	!	!	!LO:N:vis=00	!LO:TX:a:t=4	!	!	!LO:TX:a:t=4:problem=dopisane długopisem	!
!	!	!	!	!	!	!	!	!	!	!	!	!LO:N:vis=00	!	!LO:N:vis=00	!LO:N:vis=00	!
4D\	.	16dd\LL	.	4a/	.	4f#/	.	2ryy	2ryy	.	0r	0r	.	0r	0r	.
.	.	16a\	.	.	.	.	.	.	.	.	.	.	.	.	.	.
.	.	16ff#\	.	.	.	.	.	.	.	.	.	.	.	.	.	.
.	.	16ee\JJ	.	.	.	.	.	.	.	.	.	.	.	.	.	.
4F#\	.	16dd\LL	.	4f#/	.	4a/	.	.	.	.	.	.	.	.	.	.
.	.	16ccn\	.	.	.	.	.	.	.	.	.	.	.	.	.	.
.	.	16b\	.	.	.	.	.	.	.	.	.	.	.	.	.	.
.	.	16a\JJ	.	.	.	.	.	.	.	.	.	.	.	.	.	.
=26	=26	=26	=26	=26	=26	=26	=26	=26	=26	=26	=26	=26	=26	=26	=26	=26
!LO:TX:t=P:problem=mixed beam	!	!	!	!	!	!	!	!	!	!	!	!	!	!	!	!
8G\L	.	8b\L	.	8d/L	.	8g/L	.	2ryy	2ryy	.	.	.	.	.	.	.
8GG/	.	16b\L	.	8d/	.	8a/	.	.	.	.	.	.	.	.	.	.
.	.	16ccn\JJ	.	.	.	.	.	.	.	.	.	.	.	.	.	.
8G\J	.	8b\L	.	8d/J	.	8g/J	.	.	.	.	.	.	.	.	.	.
8r	.	8b\J	.	8r	.	8r	.	.	.	.	.	.	.	.	.	.
!LO:LB:g=original	!	!	!	!	!	!LO:LB:g=original	!	!	!	!	!	!	!	!	!	!
=27	=27	=27	=27	=27	=27	=27	=27	=27	=27	=27	=27	=27	=27	=27	=27	=27
4E\	.	16ee\LL	.	4b/	.	4g/	.	2ryy	2ryy	.	.	.	.	.	.	.
.	.	16b\	.	.	.	.	.	.	.	.	.	.	.	.	.	.
.	.	16gg\	.	.	.	.	.	.	.	.	.	.	.	.	.	.
.	.	16ff#\JJ	.	.	.	.	.	.	.	.	.	.	.	.	.	.
4G\	.	16ee\LL	.	4g/	.	4b/	.	.	.	.	.	.	.	.	.	.
.	.	16dd\	.	.	.	.	.	.	.	.	.	.	.	.	.	.
.	.	16cc#X\	.	.	.	.	.	.	.	.	.	.	.	.	.	.
.	.	16b\JJ	.	.	.	.	.	.	.	.	.	.	.	.	.	.
=28	=28	=28	=28	=28	=28	=28	=28	=28	=28	=28	=28	=28	=28	=28	=28	=28
4A\	.	4dd\	.	4a/	.	4f#/	.	2ryy	2ryy	.	.	.	.	.	.	.
8AA/	.	8cc#\L	.	8a/	.	8e/	.	.	.	.	.	.	.	.	.	.
8r	.	8a\J	.	8r	.	8r	.	.	.	.	.	.	.	.	.	.
=29	=29	=29	=29	=29	=29	=29	=29	=29	=29	=29	=29	=29	=29	=29	=29	=29
16D\	.	16d\LL	.	16d/	.	16f#/	.	2ryy	2ryy	.	16dd\	16ff#\	.	16dd\	16ff#\	.
16r	.	16dd\	.	16r	.	16r	.	.	.	.	16r	16r	.	16r	16r	.
16d\	.	16a\	.	16d/	.	16f#/	.	.	.	.	16dd\	16ff#\	.	16dd\	16ff#\	.
16r	.	16ff#\JJ	.	16r	.	16r	.	.	.	.	16r	16r	.	16r	16r	.
4D\	.	8.ff#\L	.	4d/	.	4f#/	.	.	.	.	4dd\	4ff#\	.	4dd\	4ff#\	.
.	.	16ee\Jk	.	.	.	.	.	.	.	.	.	.	.	.	.	.
!	!	!	!	!LO:LB:g=original	!	!	!	!	!	!	!	!	!	!	!	!
=30	=30	=30	=30	=30	=30	=30	=30	=30	=30	=30	=30	=30	=30	=30	=30	=30
16AA/	.	16gg\LL	.	16e/	.	16g/	.	2ryy	2ryy	.	16ee\	16ggX\	.	16ee\	16gg\	.
16r	.	16ee\	.	16r	.	16r	.	.	.	.	16r	16r	.	16r	16r	.
16A\	.	16cc#\	.	16e/	.	16g/	.	.	.	.	16ee\	16gg\	.	16ee\	16gg\	.
16r	.	16a\JJ	.	16r	.	16r	.	.	.	.	16r	16r	.	16r	16r	.
4AA/	.	8g\L	.	4e/	.	4g/	.	.	.	.	4ee\	4gg\	.	4ee\	4gg\	.
.	.	8gg\J	.	.	.	.	.	.	.	.	.	.	.	.	.	.
!	!	!LO:LB:g=original	!	!	!	!	!	!	!	!	!LO:LB:g=original	!	!	!LO:LB:g=original	!	!
=31	=31	=31	=31	=31	=31	=31	=31	=31	=31	=31	=31	=31	=31	=31	=31	=31
*	*	*	*	*tremolo	*	*	*	*	*	*	*	*	*	*	*	*
4D\	.	16ff#\LL	.	16f#/LL	.	(16a\LL	.	2ryy	2ryy	.	4dd\	4ff#\	.	8dd\L	4ff#\	.
.	.	16ff#\	.	16f#/	.	16dd\)	.	.	.	.	.	.	.	.	.	.
.	.	16ff#\	.	16f#/	.	16dd'\	.	.	.	.	.	.	.	8dd\J	.	.
.	.	16ee\JJ	.	16f#/JJ	.	16dd'\JJ	.	.	.	.	.	.	.	.	.	.
*	*	*	*	*Xtremolo	*	*	*	*	*	*	*	*	*	*	*	*
!	!	!	!	!	!	!	!	!	!	!	!	!LO:N:vis=8	!	!	!	!
8G\L	.	16gg\LL	.	8g/L	.	16ee\LL	.	.	.	.	4ee\	16r	.	8r	8r	.
!	!	!	!	!	!	!	!	!	!	!	!	!LO:N:vis=8	!	!	!	!
.	.	16ee\	.	.	.	16cc#\	.	.	.	.	.	16r	.	.	.	.
8A\J	.	16ee\	.	8e/J	.	16cc#\	.	.	.	.	.	8gg\	.	8ee\	8gg\	.
.	.	16cc#\JJ	.	.	.	16g\JJ	.	.	.	.	.	.	.	.	.	.
!	!	!	!	!	!	!	!	!	!	!	!	!	!	!	!LO:LB:g=original	!
=	=	=	=	=	=	=	=	=	=	=	=	=	=	=	=	=
4A\	.	4cc#\	.	4e/	.	4g/	.	4.ryy	4.ryy	.	4ee\	4gg\	.	4ee\	4gg\	.
8D\	.	8dd\	.	8d/	.	8f#/	.	.	.	.	8dd\	8ff#\	.	8dd\	8ff#\	.
!LO:LB:g=original	!	!	!	!	!	!LO:LB:g=original	!	!	!	!	!	!	!	!	!	!
=32:|!	=32:|!	=32:||:!	=32:||:!	=32:|!	=32:|!	=32:|!	=32:|!	=32:|!	=32:|!	=32:|!	=32:||:!	=32:||:!	=32:||:!	=32:||:!	=32:||:!	=32:||:!
*k[c#f#]	*	*	*	*k[c#f#]	*	*k[f#c#]	*	*k[f#c#]	*k[f#c#]	*	*	*	*	*	*	*
*M2/4	*	*	*	*M2/4	*	*M2/4	*	*M2/4	*M2/4	*	*	*	*	*	*	*
!	!	!	!	!	!	!LO:TX:t=P:znaki:problem= f# zamiast ff#	!	!	!	!	!	!LO:N:vis=4	!	!	!	!
!LO:TX:a:B:t=Varia IIda	!	!LO:TX:a:B:t=Vari 2do	!	!LO:TX:a:B:t=2da\nVaria	!LO:DY:b:BI:t=pia	!LO:TX:a:B:t=IIda\nVaria	!LO:DY:b:Bi:t=pia	!	!	!	!	!LO:TX:a:B:t=Vari IIda	!	!LO:TX:a:B:t=Varia 2do	!LO:TX:a:B:t=Vari&colon; 2do	!
8r	.	8r	.	8f#/	p	8a/	p	8ryy	8ryy	.	8aa\	8r	.	8aa\	8r	.
=33	=33	=33	=33	=33	=33	=33	=33	=33	=33	=33	=33	=33	=33	=33	=33	=33
!	!LO:DY:b:Bi:t=p&colon;	!	!	!	!	!	!	!	!	!	!	!	!	!	!	!
8r	p	2A/	.	8f#/L	.	8a/L	.	2ryy	2ryy	.	8aa\L	2r	.	8ff#\L	2r	.
8AA/L	.	.	.	16g/L	.	16b/L	.	.	.	.	16bb\L	.	.	16gg\L	.	.
.	.	.	.	16e/JJ	.	16g/JJ	.	.	.	.	16gg\JJ	.	.	16ee\JJ	.	.
8C#/	.	.	.	8e/L	.	(8g/L	.	.	.	.	8gg\L	.	.	8ee\L	.	.
8D/J	.	.	.	8d/J	.	8f#/J)	.	.	.	.	8ff#\J	.	.	8dd\J	.	.
=34	=34	=34	=34	=34	=34	=34	=34	=34	=34	=34	=34	=34	=34	=34	=34	=34
8r	.	2A/	.	8a/L	.	8f#/L	.	2ryy	2ryy	.	8ff#\L	8aa\L	.	8ff#\L	8aa\L	.
8AA/L	.	.	.	16b/L	.	16g/L	.	.	.	.	16gg\L	16bb\L	.	16gg\L	16bb\L	.
.	.	.	.	16g/JJ	.	16e/JJ	.	.	.	.	16ee\JJ	16gg\JJ	.	16ee\JJ	16gg\JJ	.
8C#/	.	.	.	8g/L	.	8e/L	.	.	.	.	8ee\L	8gg\L	.	8ee\L	8gg\L	.
8D/J	.	.	.	8f#/J	.	8d/J	.	.	.	.	8dd\J	8ff#\J	.	8dd\J	8ff#\J	.
!	!	!	!	!LO:LB:g=original	!	!	!	!	!	!	!	!	!	!	!	!
=35	=35	=35	=35	=35	=35	=35	=35	=35	=35	=35	=35	=35	=35	=35	=35	=35
16D\LL	.	16d\LL	.	(16d/LL	.	16d/LL	.	2ryy	2ryy	.	4r	4r	.	4r	4r	.
16E\	.	16e\	.	16e/	.	16e/	.	.	.	.	.	.	.	.	.	.
16F#\	.	16f#\	.	16f#/	.	16f#/	.	.	.	.	.	.	.	.	.	.
16G\JJ	.	16g\JJ	.	16g/JJ)	.	16g/JJ	.	.	.	.	.	.	.	.	.	.
8A\L	.	8a\L	.	8a/L	.	8a/L	.	.	.	.	8r	8r	.	8r	8r	.
8G\J	.	8g\J	.	8g/J	.	8b/J	.	.	.	.	8gg\	8bb\	.	8gg\	8bb\	.
=36	=36	=36	=36	=36	=36	=36	=36	=36	=36	=36	=36	=36	=36	=36	=36	=36
!LO:TX:t=P:problem=mixed beam	!	!	!	!	!	!	!	!	!	!	!	!	!	!	!	!
8A\L	.	8f#\L	.	8f#/L	.	8a/L	.	2ryy	2ryy	.	8ff#\L	8aa\L	.	8ff#\L	8aa\L	.
!	!	!	!	!	!	!	!	!	!	!	!	!	!	!	!LO:SIC:v:s=8gg\	!
8AA/	.	8e\	.	8e/	.	8g/	.	.	.	.	8ee\	8gg\	.	8ee\	8ff#\	.
!LO:SIC:v:s=8D/J	!	!	!	!	!	!	!	!	!	!	!	!	!	!	!	!
8C#/J	.	8d\J	.	8d/	.	8f#/	.	.	.	.	8dd\	8ff#\	.	8dd\	8ff#\	.
8r	.	8r	.	8f#/J	.	8a/J	.	.	.	.	8ff#\J	8aa\J	.	8ff#\J	8aa\J	.
=37	=37	=37	=37	=37	=37	=37	=37	=37	=37	=37	=37	=37	=37	=37	=37	=37
8r	.	2A/	.	8f#/L	.	8a/L	.	2ryy	2ryy	.	8ff#\L	8aa\L	.	8ff#\L	8aa\L	.
8AA/L	.	.	.	16g/L	.	16b/L	.	.	.	.	16gg\L	16bb\L	.	16gg\L	16bb\L	.
.	.	.	.	16e/JJ	.	16g/JJ	.	.	.	.	16ee\JJ	16gg\JJ	.	16ee\JJ	16gg\JJ	.
8C#/	.	.	.	8e/L	.	8g/L	.	.	.	.	8ee\L	8gg\L	.	8ee\L	8gg\L	.
8D/J	.	.	.	8d/J	.	8f#/J	.	.	.	.	8dd\J	8ff#\J	.	8dd\J	8ff#\J	.
!LO:LB:g=original	!	!	!	!	!	!LO:LB:g=original	!	!	!	!	!	!	!	!	!	!
=38	=38	=38	=38	=38	=38	=38	=38	=38	=38	=38	=38	=38	=38	=38	=38	=38
!	!	!LO:SIC:v:s=8d\	!	!	!	!LO:TX:t=P:problem=mixed beam	!	!	!	!	!	!	!	!	!	!
8r	.	8e\	.	16d/LL	.	16d/LL	.	2ryy	2ryy	.	4b\	2r	.	2r	2r	.
.	.	.	.	16b/JJ	.	16dd\JJ	.	.	.	.	.	.	.	.	.	.
8E\L	.	4e\	.	4b/	.	4dd\	.	.	.	.	.	.	.	.	.	.
8G#X\	.	.	.	.	.	.	.	.	.	.	8cc#\	.	.	.	.	.
8A\J	.	8e\	.	8a/	.	8cc#\	.	.	.	.	8r	.	.	.	.	.
!	!	!	!	!	!	!	!	!	!	!	!LO:LB:g=original	!	!	!LO:LB:g=original	!	!
=39	=39	=39	=39	=39	=39	=39	=39	=39	=39	=39	=39	=39	=39	=39	=39	=39
!LO:TX:t=P:problem=mixed beam	!	!LO:SIC:v:s=8d\L	!	!	!	!	!	!	!	!	!	!	!	!	!	!
8D\L	.	8e\L	.	8a/L	.	(16cc#\LL	.	2ryy	2ryy	.	8r	8r	.	8r	8r	.
.	.	.	.	.	.	16b\J)	.	.	.	.	.	.	.	.	.	.
8F#\	.	8f#\	.	16g#X/L	.	8dd\J	.	.	.	.	8b\L	8dd\L	.	8bb\L	8ddd\L	.
.	.	.	.	16b/JJ	.	.	.	.	.	.	.	.	.	.	.	.
8E\	.	8e\	.	8a/L	.	8cc#\L	.	.	.	.	8a\	8cc#\	.	8aa\	8ccc#\	.
8EE/J	.	8e\J	.	8g#/J	.	8b\J	.	.	.	.	8g#\J	8b\J	.	8gg#X\J	8bb\J	.
!	!	!LO:LB:g=original	!	!	!	!	!	!	!	!	!	!	!	!	!	!
=	=	=	=	=	=	=	=	=	=	=	=	=	=	=	=	=
!	!	!LO:TX:t=P:\right:problem	!	!	!	!	!	!	!	!	!	!	!	!	!	!
!	!	!LO:TX:t=P:problem=skreślony takt	!	!LO:SIC:v:s=4g#/	!	!	!	!	!	!	!LO:SIC:v:s=4g#\	!	!	!LO:SIC:v:s=4gg#\	!	!
4EE/	.	4e\	.	4g/	.	(4b\	.	4.ryy	4.ryy	.	4g\	4b\	.	4gg\	4bb\	.
8AA/	.	8e\	.	8a/	.	8a\)	.	.	.	.	8a\	8a\	.	8ff#\	8aa\	.
=40:|!|:	=40:|!|:	=40:|!|:	=40:|!|:	=40:|!|:	=40:|!|:	=40:|!|:	=40:|!|:	=40:|!|:	=40:|!|:	=40:|!|:	=40:|!|:	=40:|!|:	=40:|!|:	=40:|!|:	=40:|!|:	=40:|!|:
!	!	!LO:TX:a:B:t=Vari 3tio	!	!	!LO:DY:b:Bi:t=p&colon;	!	!	!	!	!	!	!	!	!	!	!
8r	.	8f#\	.	8a/	p	8aa\	.	8ryy	8ryy	.	8r	8r	.	8r	8r	.
!	!	!	!	!	!	!	!	!	!	!	!	!	!	!	!LO:LB:g=original	!
=41	=41	=41	=41	=41	=41	=41	=41	=41	=41	=41	=41	=41	=41	=41	=41	=41
!	!	!	!	!	!	!	!	!	!	!	!	!LO:TX:a:t=1	!	!	!	!
4BB/	.	16f#\LL	.	16a/LL	.	16aa\LL	.	2ryy	2ryy	.	2r	2r	.	2r	2r	.
!	!	!LO:TX:t=P:\right:problem	!	!	!	!	!	!	!	!	!	!	!	!	!	!
.	.	16a\JJ	.	16ccn/JJ	.	16cccn\JJ	.	.	.	.	.	.	.	.	.	.
.	.	4g\	.	4b/	.	4bb\	.	.	.	.	.	.	.	.	.	.
4D#X/	.	.	.	.	.	.	.	.	.	.	.	.	.	.	.	.
.	.	8f#\	.	8a/	.	8aa\	.	.	.	.	.	.	.	.	.	.
!	!	!	!	!LO:LB:g=original	!	!	!	!	!	!	!	!LO:LB:g=original	!	!	!	!
=42	=42	=42	=42	=42	=42	=42	=42	=42	=42	=42	=42	=42	=42	=42	=42	=42
!	!	!	!	!	!	!	!	!	!	!	!	!	!LO:DY:b:Bi:t=p&colon;	!	!	!
4E\	.	4e\	.	4g/	.	4gg\	.	2ryy	2ryy	.	8ee\L	8gg\L	p	8ee\L	8gg\L	.
.	.	.	.	.	.	.	.	.	.	.	16gg\L	16bb\L	.	16gg\L	16bb\L	.
.	.	.	.	.	.	.	.	.	.	.	16gg\JJ	16bb\JJ	.	16gg\JJ	16bb\JJ	.
!	!	!	!	!	!	!	!	!	!	!	!	!	!	!LO:N:vis=4	!	!
4r	.	8r	.	8r	.	8r	.	.	.	.	8ff#\L	8aa\L	.	8ff#\	8aa\L	.
!	!	!	!	!	!	!	!	!	!	!	!	!	!	!LO:N:vis=4	!	!
.	.	8e\	.	8g/	.	8gg\	.	.	.	.	8ee\J	8gg\J	.	8ee\	8gg\J	.
=43	=43	=43	=43	=43	=43	=43	=43	=43	=43	=43	=43	=43	=43	=43	=43	=43
4AA/	.	16e\LL	.	16g/LL	.	16gg\LL	.	2ryy	2ryy	.	2r	2r	.	2r	2r	.
.	.	16g\JJ	.	16b/JJ	.	16bb\JJ	.	.	.	.	.	.	.	.	.	.
.	.	4f#\	.	4a/	.	4aa\	.	.	.	.	.	.	.	.	.	.
4C#/	.	.	.	.	.	.	.	.	.	.	.	.	.	.	.	.
!	!	!LO:TX:t=P:\right:problem	!	!	!	!	!	!	!	!	!	!	!	!	!	!
.	.	8e\	.	8g/	.	8gg\	.	.	.	.	.	.	.	.	.	.
=44	=44	=44	=44	=44	=44	=44	=44	=44	=44	=44	=44	=44	=44	=44	=44	=44
4D\	.	4d\	.	4f#/	.	4ff#\	.	2ryy	2ryy	.	16dd\LL	8ff#\L	.	16dd\LL	8ff#\L	.
.	.	.	.	.	.	.	.	.	.	.	16ff#\J	.	.	16ff#\J	.	.
.	.	.	.	.	.	.	.	.	.	.	8ff#\J	16aa\L	.	8ff#\J	16aa\L	.
.	.	.	.	.	.	.	.	.	.	.	.	16aa\JJ	.	.	16aa\JJ	.
4r	.	4r	.	8r	.	8r	.	.	.	.	8ee\L	8gg\L	.	8ee\L	8gg\L	.
.	.	.	.	8f#/	.	8a/	.	.	.	.	8dd\J	8ff#\J	.	8dd\J	8ff#\J	.
!	!	!	!	!	!	!LO:LB:g=original	!	!	!	!	!	!	!	!	!	!
=45	=45	=45	=45	=45	=45	=45	=45	=45	=45	=45	=45	=45	=45	=45	=45	=45
8r	.	[2A/	.	8f#/L	.	8a/L	.	2ryy	2ryy	.	8aa\L	2r	.	8aa\L	2r	.
8AA/L	.	.	.	16g/L	.	16b/L	.	.	.	.	16bb\L	.	.	16bb\L	.	.
.	.	.	.	16e/JJ	.	16g/JJ	.	.	.	.	16gg\JJ	.	.	16gg\JJ	.	.
8C#/	.	.	.	8e/L	.	8g/L	.	.	.	.	8gg\L	.	.	8gg\L	.	.
8D/J	.	.	.	8d/J	.	8f#/J	.	.	.	.	8ff#\J	.	.	8ff#\J	.	.
=46	=46	=46	=46	=46	=46	=46	=46	=46	=46	=46	=46	=46	=46	=46	=46	=46
8r	.	2A/]	.	8a/L	.	8f#/L	.	2ryy	2ryy	.	8ff#\L	8aa\L	.	8ff#\L	8aa\L	.
8AA/L	.	.	.	16b/L	.	16g/L	.	.	.	.	16gg\L	16bb\L	.	16gg\L	16bb\L	.
.	.	.	.	16g/JJ	.	16e/JJ	.	.	.	.	16ee\JJ	16gg\JJ	.	16ee\JJ	16gg\JJ	.
8C#/	.	.	.	8g/L	.	8e/L	.	.	.	.	8ee\L	8gg\L	.	8ee\L	8gg\L	.
8D/J	.	.	.	8f#/J	.	8d/J	.	.	.	.	8dd\J	8ff#\J	.	8dd\J	8ff#\J	.
!	!	!	!	!	!	!	!	!	!	!	!LO:LB:g=original	!	!	!LO:LB:g=original	!	!
=47	=47	=47	=47	=47	=47	=47	=47	=47	=47	=47	=47	=47	=47	=47	=47	=47
8r	.	8c#\	.	8e/	.	8g/	.	2ryy	2ryy	.	8r	8r	.	8r	8r	.
!	!	!LO:TX:t=P:\right:problem	!	!	!	!	!	!	!	!	!	!	!	!	!	!
8AA/L	.	4c#\	.	4e/	.	4g/	.	.	.	.	4ee\	4g\	.	4ee\	4gg\	.
8C#/	.	.	.	.	.	.	.	.	.	.	.	.	.	.	.	.
!	!	!	!	!LO:N:vis=4	!	!LO:N:vis=4	!	!	!	!	!	!LO:SIC:v:s=8cc#\	!	!	!	!
8AA/J	.	8c#\	.	8c#/	.	8e/	.	.	.	.	8g\	8dd\	.	8g/	8ccc#\	.
=	=	=	=	=	=	=	=	=	=	=	=	=	=	=	=	=
!	!	!	!	!	!	!	!	!	!	!	!	!LO:TX:t=P:problem=brak taktu nr 54	!	!	!	!
4AA/	.	4g\	.	4c#/	.	4e/	.	4.ryy	4.ryy	.	4g/	4.ryy	.	4g/	4ccc#\	.
8D/	.	8f#\	.	8d/	.	8f#/	.	.	.	.	8f#/	.	.	8f#/	8ddd\	.
!LO:LB:g=original	!	!	!	!LO:LB:g=original	!	!LO:LB:g=original	!	!	!	!	!	!	!	!	!	!
=48:|!	=48:|!	=48:||:!	=48:|!	=48:|!	=48:|!	=48:|!	=48:|!	=48:|!	=48:|!	=48:|!	=48:||:!	=48:||:!	=48:||:!	=48:||:!	=48:||:!	=48:||:!
*k[c#f#]	*	*	*	*k[c#f#]	*	*k[f#c#]	*	*k[f#c#]	*k[f#c#]	*	*	*	*	*	*	*
*M2/4	*	*	*	*M2/4	*	*M2/4	*	*M2/4	*M2/4	*	*	*	*	*	*	*
!	!	!	!	!	!	!LO:TX:t=P:problem=przy kluczu błędnie a# zamiast ff#	!	!	!	!	!	!	!	!	!	!
!	!	!	!	!LO:TX:a:B:t=3tia\nVaria	!	!LO:TX:a:B:t=IIItia\nVaria&colon;	!	!	!	!	!	!	!	!	!	!
!LO:TX:a:B:t=Varia IIItia	!	!	!	!LO:TX:a:t=Stoccato	!LO:DY:b:Bi:t=p&colon;	!LO:TX:a:t=Stocato.	!LO:DY:b:Bi:t=pia	!LO:TX:a:B:t=Variatio 3tia	!LO:TX:a:B:t=Variatio 3tia	!	!	!LO:TX:a:B:t=Varia 3tia	!	!LO:TX:a:B:t=Varia&colon; 3tia	!LO:TX:a:B:t=Varia 3tia	!
8r	.	8r	.	8a/	p	8a/	p	8r	8r	.	8r	8r	.	8r	8r	.
=49	=49	=49	=49	=49	=49	=49	=49	=49	=49	=49	=49	=49	=49	=49	=49	=49
*	*	*	*	*	*	*	*	*	*2\right	*	*2\right	*2\right	*	*2\right	*2\right	*
!	!	!	!	!	!	!	!	!	!	!	!	!	!	!	!LO:TX:t=P:p = p:global:problem	!
!	!LO:DY:b:Bi:t=pia	!	!	!	!	!LO:TX:t=P:problem=mixed beam	!	!	!	!	!	!	!	!	!	!LO:DY:b:Bi:t=p&colon;
8D\	p	16r	.	16d'/LL	.	16d'/LL	.	2F#/	2d\	.	2dd\	2ff#\	.	2dd\	2ff#\	p
.	.	16a\LL	.	16f#'/	.	16dd'\	.	.	.	.	.	.	.	.	.	.
8r	.	16a\	.	16dd'/	.	16ff#'\	.	.	.	.	.	.	.	.	.	.
.	.	16a\JJ	.	16f#'/JJ	.	16dd'\JJ	.	.	.	.	.	.	.	.	.	.
!	!	!LO:LB:g=original	!	!	!	!LO:TX:t=P:problem=mixed beam	!	!	!	!	!	!	!	!	!	!
8D\	.	16r	.	16d'/LL	.	16d'/LL	.	.	.	.	.	.	.	.	.	.
.	.	16a\LL	.	16f#'/	.	16dd'\	.	.	.	.	.	.	.	.	.	.
8r	.	16a\	.	16dd'/	.	16ff#'\	.	.	.	.	.	.	.	.	.	.
.	.	16a\JJ	.	16f#'/JJ	.	16dd'\JJ	.	.	.	.	.	.	.	.	.	.
=50	=50	=50	=50	=50	=50	=50	=50	=50	=50	=50	=50	=50	=50	=50	=50	=50
8A\	.	16r	.	16a'\LL	.	16a'\LL	.	2A/	2e\	.	2ee\	2gg\	.	2ee\	2gg\	.
.	.	16a\LL	.	16cc#'\	.	16ee'\	.	.	.	.	.	.	.	.	.	.
8r	.	16a\	.	16ee'\	.	16gg'\	.	.	.	.	.	.	.	.	.	.
.	.	16a\JJ	.	16cc#'\JJ	.	16ee'\JJ	.	.	.	.	.	.	.	.	.	.
8A\	.	16r	.	16a'\LL	.	16a'\LL	.	.	.	.	.	.	.	.	.	.
.	.	16a\LL	.	16cc#'\	.	16ee'\	.	.	.	.	.	.	.	.	.	.
8r	.	16a\	.	16ee'\	.	16gg'\	.	.	.	.	.	.	.	.	.	.
.	.	16a\JJ	.	16cc#'\JJ	.	16ee'\JJ	.	.	.	.	.	.	.	.	.	.
=51	=51	=51	=51	=51	=51	=51	=51	=51	=51	=51	=51	=51	=51	=51	=51	=51
8D\	.	16r	.	16d'/LL	.	16d'\LL	.	4d\	4f#\	.	4dd\	4ff#\	.	4dd\	4ff#\	.
.	.	16a\LL	.	16f#'/	.	16dd'\	.	.	.	.	.	.	.	.	.	.
8r	.	16a\	.	16dd'/	.	16ff#'\	.	.	.	.	.	.	.	.	.	.
.	.	16a\JJ	.	16f#'/JJ	.	16dd'\JJ	.	.	.	.	.	.	.	.	.	.
!	!	!	!	!LO:TX:t=P:problem=mixed beam	!	!	!	!	!	!	!	!	!	!	!	!
8C#\L	.	16g\LL	.	16ee'\LL	.	16gg\LL	.	8e\L	8g\L	.	8ee\L	8gg\L	.	8ee\L	8gg\L	.
.	.	16e\	.	16cc#'\	.	16ee\	.	.	.	.	.	.	.	.	.	.
8D\J	.	16f#\	.	16dd'\	.	16ff#\	.	8d\J	8e\J	.	8dd\J	8ff#\J	.	8dd\J	8ff#\J	.
.	.	16d\JJ	.	16f#'/JJ	.	16dd\JJ	.	.	.	.	.	.	.	.	.	.
!	!	!	!	!LO:LB:g=original	!	!LO:LB:g=original	!	!	!	!	!	!LO:LB:g=original	!	!	!LO:LB:g=original	!
=52	=52	=52	=52	=52	=52	=52	=52	=52	=52	=52	=52	=52	=52	=52	=52	=52
!	!	!	!	!	!	!	!	!	!	!	!	!	!LO:DY:b:Bi:t=for&colon;	!	!	!LO:DY:b:Bi:t=for
4AA/	.	4e\	.	16a\LL	.	(16a\LL	.	4d\	4f#\	.	4dd\	4ff#\	f	4dd\	4ff#\	f
.	.	.	.	(32b\L	.	32b\L	.	.	.	.	.	.	.	.	.	.
.	.	.	.	32cc#\	.	32cc#\	.	.	.	.	.	.	.	.	.	.
.	.	.	.	32dd\	.	32dd\	.	.	.	.	.	.	.	.	.	.
.	.	.	.	32ee\	.	32ee\	.	.	.	.	.	.	.	.	.	.
.	.	.	.	32ff#\	.	32ff#X\	.	.	.	.	.	.	.	.	.	.
.	.	.	.	32gg#X\JJJ)	.	32gg#X\JJJ)	.	.	.	.	.	.	.	.	.	.
4A\	.	4a\	.	4aa\	.	4aa\	.	8A/L	8e\L	.	8cc#\L	8ee\L	.	8cc#\L	8ee\L	.
.	.	.	.	.	.	.	.	8A/J	8e\J	.	8cc#\J	8ee\J	.	8cc#\J	8ee\J	.
=53	=53	=53	=53	=53	=53	=53	=53	=53	=53	=53	=53	=53	=53	=53	=53	=53
*	*	*	*	*	*	*	*	*2\right	*	*	*	*	*	*	*	*
!	!	!	!	!	!	!LO:TX:t=P:problem=mixed beam	!	!	!	!	!	!	!	!	!	!
8D\	.	16r	.	16d'/LL	.	16d'/LL	.	2d\	2f#\	.	2dd\	2ff#\	.	2dd\	2ff#\	.
.	.	16a\LL	.	16f#'/	.	16dd'\	.	.	.	.	.	.	.	.	.	.
8r	.	16a\	.	16dd'/	.	16ff#'\	.	.	.	.	.	.	.	.	.	.
.	.	16a\JJ	.	16f#'/JJ	.	16dd'\JJ	.	.	.	.	.	.	.	.	.	.
!	!	!	!	!	!	!LO:TX:t=P:problem=mixed beam	!	!	!	!	!	!	!	!	!	!
8D\	.	16r	.	16d'/LL	.	16d'/LL	.	.	.	.	.	.	.	.	.	.
.	.	16a\LL	.	16f#'/	.	16dd'\	.	.	.	.	.	.	.	.	.	.
8r	.	16a\	.	16dd'/	.	16ff#'\	.	.	.	.	.	.	.	.	.	.
.	.	16a\JJ	.	16f#'/JJ	.	16dd'\JJ	.	.	.	.	.	.	.	.	.	.
!LO:LB:g=original	!	!	!	!	!	!	!	!	!	!	!	!	!	!	!	!
=54	=54	=54	=54	=54	=54	=54	=54	=54	=54	=54	=54	=54	=54	=54	=54	=54
8A\	.	16r	.	16a'/LL	.	16a'\LL	.	2A/	2e\	.	2cc#\	2ee\	.	2cc#\	2ee\	.
.	.	16e\LL	.	16a'/	.	16cc#'\	.	.	.	.	.	.	.	.	.	.
8r	.	16e\	.	16cc#'/	.	16ee'\	.	.	.	.	.	.	.	.	.	.
.	.	16e\JJ	.	16a'/JJ	.	16cc#'\JJ	.	.	.	.	.	.	.	.	.	.
8A\	.	16r	.	16a'/LL	.	16a'\LL	.	.	.	.	.	.	.	.	.	.
.	.	16e\LL	.	16a'/	.	16cc#'\	.	.	.	.	.	.	.	.	.	.
8r	.	16e\	.	16cc#'/	.	16ee'\	.	.	.	.	.	.	.	.	.	.
.	.	16e\JJ	.	16a'/JJ	.	16cc#'\JJ	.	.	.	.	.	.	.	.	.	.
!	!	!LO:LB:g=original	!	!	!	!	!	!	!	!	!	!	!	!	!	!
=55	=55	=55	=55	=55	=55	=55	=55	=55	=55	=55	=55	=55	=55	=55	=55	=55
8E\	.	16r	.	16e/LL	.	16g#X'/LL	.	2e\	2e\	.	2dd\	2gg#\	.	2dd\	2gg#X\	.
.	.	16e\LL	.	16g#X/	.	16b'/	.	.	.	.	.	.	.	.	.	.
8r	.	16e\	.	16b/	.	16dd'/	.	.	.	.	.	.	.	.	.	.
.	.	16e\JJ	.	16g#/JJ	.	16b'/JJ	.	.	.	.	.	.	.	.	.	.
8E\	.	16r	.	16e/LL	.	16g#'/LL	.	.	.	.	.	.	.	.	.	.
.	.	16e\LL	.	16g#X/	.	16b'/	.	.	.	.	.	.	.	.	.	.
8r	.	16e\	.	16b/	.	16dd'/	.	.	.	.	.	.	.	.	.	.
.	.	16e\JJ	.	16g#/JJ	.	16b'/JJ	.	.	.	.	.	.	.	.	.	.
=	=	=	=	=	=	=	=	=	=	=	=	=	=	=	=	=
!	!	!	!	!	!	!	!	!	!	!	!	!LO:SIC:v:s=4gg#\	!	!	!LO:SIC:v:s=4gg#\	!
4E\	.	4e\	.	4g#X/	.	4b\	.	4e\	4e\	.	4dd\	4gg\	.	4dd\	4gg\	.
8AA/	.	8e\	.	8a/	.	8a\	.	8A/	8e\	.	8cc#\	8aa\	.	8cc#\	8aa\	.
!	!	!	!	!LO:LB:g=original	!	!LO:LB:g=original	!	!	!	!	!	!	!	!	!	!
=56:|!|:	=56:|!|:	=56:|!|:	=56:|!|:	=56:|!|:	=56:|!|:	=56:|!|:	=56:|!|:	=56:|!|:	=56:|!|:	=56:|!|:	=56:|!|:	=56:|!|:	=56:|!|:	=56:|!|:	=56:|!|:	=56:|!|:
!	!	!	!	!	!	!	!	!LO:TX:a:t=Solo	!LO:TX:a:t=Solo	!	!	!	!	!	!	!
8r	.	8r	.	8r	.	8r	.	8A/	8e\	.	8r	8r	.	8r	8r	.
=57	=57	=57	=57	=57	=57	=57	=57	=57	=57	=57	=57	=57	=57	=57	=57	=57
!LO:N:vis=0	!	!LO:N:vis=00	!	!LO:N:vis=0	!	!LO:N:vis=0	!	!	!	!	!	!	!	!	!	!
1r	.	0r	.	1r	.	1r	.	8.A/L	8.e\L	.	2r	2r	.	2r	2r	.
.	.	.	.	.	.	.	.	16d/Jk	16f#\Jk	.	.	.	.	.	.	.
!	!	!	!	!	!	!	!	!LO:TX:t=P:problem=mixed beam	!	!	!	!	!	!	!	!
.	.	.	.	.	.	.	.	8e\L	8g\L	.	.	.	.	.	.	.
.	.	.	.	.	.	.	.	8A/J	8e\J	.	.	.	.	.	.	.
!	!	!	!	!	!	!	!	!	!	!	!LO:LB:g=original	!	!	!LO:LB:g=original	!	!
=58	=58	=58	=58	=58	=58	=58	=58	=58	=58	=58	=58	=58	=58	=58	=58	=58
.	.	.	.	.	.	.	.	8.d\L	8.f#\L	.	8.dd\L	8.ff#\L	.	8.dd\L	8.ff#\L	.
!	!	!	!	!	!	!	!	!	!LO:N:vis=8	!	!	!	!	!	!	!
.	.	.	.	.	.	.	.	16e\Jk	16g\K	.	16ee\Jk	16bb\Jk	.	16ee\Jk	16gg\Jk	.
.	.	.	.	.	.	.	.	8f#\L	8a\	.	8ff#\L	8aa\L	.	8ff#\L	8aa\L	.
.	.	.	.	.	.	.	.	8d\J	8f#\J	.	8dd\J	8ff#\J	.	8dd\J	8ff#\J	.
=59	=59	=59	=59	=59	=59	=59	=59	=59	=59	=59	=59	=59	=59	=59	=59	=59
8r	.	.	.	8f#/L	.	8a/L	.	8f#\L	8a\L	.	8ff#\L	8aa\L	.	8ff#\L	8aa\L	.
8AA/L	.	.	.	16g/L	.	16b/L	.	16g\L	16b\L	.	16gg\L	16bb\L	.	16gg\L	16bb\L	.
.	.	.	.	16e/JJ	.	16g/JJ	.	16e\JJ	16g\JJ	.	16ee\JJ	16gg\JJ	.	16ee\JJ	16gg\JJ	.
8C#/	.	.	.	8e/L	.	8g/L	.	8e\L	8g\L	.	8ee\L	8gg\L	.	8ee\L	8gg\L	.
8D/J	.	.	.	8d/J	.	8f#/J	.	8d\J	8f#\J	.	8dd\J	8ff#\J	.	8dd\J	8ff#\J	.
!	!	!	!	!	!	!	!	!	!LO:LB:g=original	!	!	!	!	!	!	!
=60	=60	=60	=60	=60	=60	=60	=60	=60	=60	=60	=60	=60	=60	=60	=60	=60
4A\	.	.	.	4d/	.	4f#/	.	4d\	4f#\	.	4dd\	4ff#\	.	4dd\	4ff#\	.
8AA/	.	.	.	8c#/	.	8e/L	.	8A/	8e\	.	8cc#\	8ee\	.	8cc#\	8ee\	.
!	!	!	!	!	!	!	!	!LO:TX:b:t=V.S.	!	!	!	!	!	!	!	!
8r	.	.	.	8r	.	8a/J	.	8r	8r	.	8r	8r	.	8r	8r	.
!	!	!	!	!	!	!	!	!LO:PB:g=original	!	!	!	!LO:PB:g=original	!	!	!	!
=61	=61	=61	=61	=61	=61	=61	=61	=61	=61	=61	=61	=61	=61	=61	=61	=61
!	!	!	!	!	!	!LO:TX:t=P:problem=mixed beam	!	!	!	!	!	!	!	!	!	!
8D\	.	16r	.	16d'/LL	.	16d'/LL	.	2F#/	2d\	.	2dd\	2ff#\	.	2dd\	2ff#\	.
!	!	!	!LO:DY:b:Bi:t=p&colon;	!	!	!	!	!	!	!	!	!	!	!	!	!
.	.	16a\LL	p	16f#'/	.	16dd'\	.	.	.	.	.	.	.	.	.	.
8r	.	16a\	.	16dd'/	.	16ff#'\	.	.	.	.	.	.	.	.	.	.
.	.	16a\JJ	.	16f#'/JJ	.	16dd'\JJ	.	.	.	.	.	.	.	.	.	.
!	!	!	!	!	!	!LO:TX:t=P:problem=mixed beam	!	!	!	!	!	!	!	!	!	!
8D\	.	16r	.	16d'/LL	.	16d'/LL	.	.	.	.	.	.	.	.	.	.
.	.	16a\LL	.	16f#'/	.	16dd'\	.	.	.	.	.	.	.	.	.	.
8r	.	16a\	.	16dd'/	.	16ff#'\	.	.	.	.	.	.	.	.	.	.
.	.	16a\JJ	.	16f#'/JJ	.	16dd'\JJ	.	.	.	.	.	.	.	.	.	.
=62	=62	=62	=62	=62	=62	=62	=62	=62	=62	=62	=62	=62	=62	=62	=62	=62
8A\	.	16r	.	16a'\LL	.	16a'\LL	.	2A/	2e\	.	2ee\	2gg\	.	2ee\	2gg\	.
.	.	16a\LL	.	16cc#'\	.	16ee'\	.	.	.	.	.	.	.	.	.	.
8r	.	16a\	.	16ee'\	.	16gg'\	.	.	.	.	.	.	.	.	.	.
.	.	16a\JJ	.	16cc#'\JJ	.	16ee'\JJ	.	.	.	.	.	.	.	.	.	.
8A\	.	16r	.	16a'\LL	.	16a\LL	.	.	.	.	.	.	.	.	.	.
.	.	16a\LL	.	16cc#'\	.	16ee\	.	.	.	.	.	.	.	.	.	.
8r	.	16a\	.	16ee'\	.	16gg\	.	.	.	.	.	.	.	.	.	.
.	.	16a\JJ	.	16cc#'\JJ	.	16ee\JJ	.	.	.	.	.	.	.	.	.	.
!LO:LB:g=original	!	!	!	!	!	!	!	!	!	!	!	!	!	!	!	!
=63	=63	=63	=63	=63	=63	=63	=63	=63	=63	=63	=63	=63	=63	=63	=63	=63
!	!	!	!LO:DY:a:Bi:t=for	!	!	!	!	!	!	!	!	!	!	!	!	!
8D\	.	8a\	f	8dd\	.	8ff#\	.	8d\	8f#\	.	8dd\	8ff#\	.	8dd\	8ff#\	.
8r	.	8r	.	8r	.	8r	.	8r	8r	.	8r	8r	.	8r	8r	.
!LO:TX:t=P:problem=mixed beam	!	!	!	!	!	!	!	!LO:TX:t=P:problem=mixed beam	!	!	!	!	!	!	!	!
8A\L	.	8a\L	.	8dd\L	.	8gg\L	.	8e\L	8g\L	.	8ee\L	8gg\L	.	8ee\L	8gg\L	.
8AA/J	.	8a\J	.	8cc#\J	.	8ee\J	.	8A/J	8e\J	.	8cc#\J	8ee\J	.	8cc#\J	8ee\J	.
!	!	!	!	!	!	!	!	!	!	!	!	!	!	!	!LO:LB:g=original	!
=	=	=	=	=	=	=	=	=	=	=	=	=	=	=	=	=
4AA/	.	4a\	.	4cc#\	.	(4ee\	.	4A/	4e\	.	4cc#I\	4ee\	.	4cc#\	4ee\	.
!	!	!LO:TX:b:t=Siqua	!	!	!	!	!	!	!	!	!	!	!	!	!	!
8D/	.	8a\	.	8dd\	.	8dd\)	.	8d/	8f#\	.	8dd\	8dd\	.	8dd\	8dd\	.
!	!	!LO:PB:g=original	!	!LO:LB:g=original	!	!LO:LB:g=original	!	!	!	!	!	!	!	!	!	!
=64:|!	=64:|!	=64:||:!	=64:||:!	=64:|!	=64:|!	=64:|!	=64:|!	=64:|!	=64:|!	=64:|!	=64:||:!	=64:||:!	=64:||:!	=64:||:!	=64:||:!	=64:||:!
*k[c#f#]	*	*k[f#c#]	*	*k[c#f#]	*	*k[f#c#]	*	*k[f#c#]	*k[f#c#]	*	*	*	*	*	*	*
*M2/4	*	*	*	*M2/4	*	*M2/4	*	*M2/4	*M2/4	*	*	*	*	*	*	*
!	!	!	!	!	!	!LO:TX:a:t=P:problem=przy kluczu błędnie a# zamiast ff#	!	!	!	!	!	!	!	!	!	!
!LO:TX:t=P:problem=przy kluczu błędnie D# E#	!	!	!	!LO:TX:a:B:t=4ta\nVaria	!	!LO:TX:a:B:t=IVta\nVaria	!	!	!	!	!	!	!	!	!	!
!LO:TX:a:B:t=Varia IVta	!	!	!	!LO:TX:a:t=Senza Sordini	!	!LO:TX:a:t=Senza Sordini	!	!LO:TX:a:B:t=Varia&colon; 4ta	!LO:TX:a:B:t=Varia 4ta	!	!	!	!	!LO:TX:a:B:t=Varia&colon; 4ta	!LO:TX:a:B:t=Varia 4ta	!
8r	.	8r	.	8r	.	8a/	.	8r	8r	.	8r	8r	.	8r	8r	.
=65	=65	=65	=65	=65	=65	=65	=65	=65	=65	=65	=65	=65	=65	=65	=65	=65
!	!LO:DY:b:Bi:t=p&colon;	!	!	!	!LO:DY:b:BI:t=pia	!	!	!	!	!	!	!	!	!	!	!
4D\	p	4d\	.	4f#/	p	4dd\	.	2r	2r	.	2r	2r	.	2r	2r	.
4AA/	.	4e\	.	8g/L	.	8cc#\L	.	.	.	.	.	.	.	.	.	.
.	.	.	.	8g/J	.	8cc#\J	.	.	.	.	.	.	.	.	.	.
=66	=66	=66	=66	=66	=66	=66	=66	=66	=66	=66	=66	=66	=66	=66	=66	=66
8.D\L	.	8d\	.	8f#/	.	16dd\LL	.	4r	4r	.	4r	4r	.	4r	4r	.
.	.	.	.	.	.	16a\JJ	.	.	.	.	.	.	.	.	.	.
.	.	4d\	.	4f#/	.	4a\	.	.	.	.	.	.	.	.	.	.
16E\Jk	.	.	.	.	.	.	.	.	.	.	.	.	.	.	.	.
8F#\L	.	.	.	.	.	.	.	8r	8r	.	8r	8r	.	8r	8r	.
!	!	!	!	!	!	!	!LO:DY:b:Bi:t=for	!	!	!	!	!	!	!	!	!
16d\L	.	8d\	.	8f#/	.	8a\	f	8f#\	8a\	.	8ff#\	8aa\	.	8ff#\	8aa\	.
16A\JJ	.	.	.	.	.	.	.	.	.	.	.	.	.	.	.	.
!	!	!	!	!	!	!	!	!	!	!	!LO:LB:g=original	!	!	!LO:LB:g=original	!	!
=67	=67	=67	=67	=67	=67	=67	=67	=67	=67	=67	=67	=67	=67	=67	=67	=67
!	!	!	!LO:DY:b:Bi:t=for.	!	!	!	!	!	!	!	!	!	!	!	!	!
16d\LL	.	16d\LL	f	4f#/	.	4a/	.	4f#\	4a\	.	4ff#\	4aa\	.	4ff#\	4aa\	.
16A\	.	16d\	.	.	.	.	.	.	.	.	.	.	.	.	.	.
16F#\	.	16d\	.	.	.	.	.	.	.	.	.	.	.	.	.	.
16D\JJ	.	16d\JJ	.	.	.	.	.	.	.	.	.	.	.	.	.	.
*	*	*tremolo	*	*	*	*	*	*	*	*	*	*	*	*	*	*
16A\LL	.	16c#\LL	.	8e/L	.	8g/L	.	8e\L	8g\L	.	8ee\L	8gg\L	.	8ee\L	8gg\L	.
16E\	.	16c#\	.	.	.	.	.	.	.	.	.	.	.	.	.	.
!	!	!	!	!	!	!	!	!	!	!	!	!	!	!LO:SIC:v:s=8ee\J	!	!
16C#\	.	16c#\	.	8e/J	.	8g/J	.	8e\J	8g\J	.	8ee\J	8gg\J	.	8ff#\J	8gg\J	.
16AA\JJ	.	16c#\JJ	.	.	.	.	.	.	.	.	.	.	.	.	.	.
*	*	*Xtremolo	*	*	*	*	*	*	*	*	*	*	*	*	*	*
!LO:LB:g=original	!	!	!	!	!	!	!	!	!	!	!	!	!	!	!	!
=68	=68	=68	=68	=68	=68	=68	=68	=68	=68	=68	=68	=68	=68	=68	=68	=68
!	!	!	!	!	!	!	!	!	!	!	!	!	!	!LO:SIC:v:s=4ee\	!LO:TX:t=P:\right:problem	!
16D\LL	.	16d\LL	.	4e/	.	4g/	.	4e\	4g\	.	4ee\	4gg\	.	4ff#\	4gg\	.
16F#\	.	16d\	.	.	.	.	.	.	.	.	.	.	.	.	.	.
16A\	.	16c#\	.	.	.	.	.	.	.	.	.	.	.	.	.	.
16c#\JJ	.	16c#\JJ	.	.	.	.	.	.	.	.	.	.	.	.	.	.
!	!	!	!	!	!	!	!	!	!	!	!	!	!	!LO:SIC:v:s=8dd\	!LO:TX:t=P:\right:problem	!
16d\	.	8d\	.	8d/	.	8f#/L	.	8d\	8f#\	.	8dd\	8ff#\	.	8ee\	8ff#\	.
16r	.	.	.	.	.	.	.	.	.	.	.	.	.	.	.	.
!	!	!	!	!	!	!	!LO:DY:b:Bi:t=pia	!	!	!	!	!	!	!	!	!
8r	.	8r	.	8r	.	8a/J	p	8r	8r	.	8r	8r	.	8r	8r	.
=69	=69	=69	=69	=69	=69	=69	=69	=69	=69	=69	=69	=69	=69	=69	=69	=69
!	!	!	!LO:DY:b:Bi:t=p&colon;	!	!	!	!	!	!LO:TX:a:t=2	!	!	!LO:TX:a:t=1	!	!	!	!
!	!LO:DY:b:Bi:t=p&colon;	!	!	!	!	!	!	!	!LO:N:vis=0	!	!	!	!	!	!	!
4D\	p	4a\	p	4f#/	.	4dd\	.	2r	1r	.	2r	2r	.	2r	2r	.
!LO:TX:t=P:problem=mixed beam	!	!	!	!	!	!	!	!	!	!	!	!	!	!	!	!
8d\L	.	8f#\L	.	8f#/L	.	16a\LL	.	.	.	.	.	.	.	.	.	.
.	.	.	.	.	.	16dd\JJ	.	.	.	.	.	.	.	.	.	.
8D/J	.	8d\J	.	8a/J	.	16a\LL	.	.	.	.	.	.	.	.	.	.
.	.	.	.	.	.	16dd\JJ	.	.	.	.	.	.	.	.	.	.
!	!	!	!	!LO:LB:g=original	!	!LO:PB:g=original	!	!	!	!	!	!LO:LB:g=original	!	!	!	!
=70	=70	=70	=70	=70	=70	=70	=70	=70	=70	=70	=70	=70	=70	=70	=70	=70
!	!	!	!	!	!LO:DY:b:Bi:t=for	!LO:TX:t=P:problem=kolejność znaków cc# ff#	!	!LO:TX:t=P:problem=brak taktu nr 79	!	!	!	!	!	!	!	!
4AA/	.	4A/	.	16a/LL	f	16dd\LL	.	2ryy	.	.	4r	4r	.	4r	4r	.
.	.	.	.	16cc#/JJ	.	16ee\JJ	.	.	.	.	.	.	.	.	.	.
.	.	.	.	4cc#/	.	4ee\	.	.	.	.	.	.	.	.	.	.
8A\L	.	8A/L	.	.	.	.	.	.	.	.	8r	8r	.	8r	8r	.
!	!	!	!	!	!	!	!LO:DY:b:Bi:t=for	!	!	!	!	!	!	!	!	!
16c#\L	.	8e/J	.	8a/	.	8cc#\	f	.	.	.	8a\	8cc#\	.	8ee\	8ccc#\	.
16A\JJ	.	.	.	.	.	.	.	.	.	.	.	.	.	.	.	.
!	!	!	!	!	!	!	!	!	!LO:LB:g=original	!	!	!	!	!	!	!
=71	=71	=71	=71	=71	=71	=71	=71	=71	=71	=71	=71	=71	=71	=71	=71	=71
*	*	*tremolo	*	*	*	*	*	*	*	*	*	*	*	*	*	*
16A\LL	.	16e\LL	.	4a/	.	4cc#\	.	8A/	8e\	.	4a\	4cc#\	.	4ee\	4ccc#\	.
16E\	.	16e\	.	.	.	.	.	.	.	.	.	.	.	.	.	.
16C#\	.	16e\	.	.	.	.	.	8r	8r	.	.	.	.	.	.	.
16AA\JJ	.	16e\JJ	.	.	.	.	.	.	.	.	.	.	.	.	.	.
!	!	!	!	!	!LO:DY:b:Bi:t=p&colon;	!	!	!	!	!	!	!	!	!	!	!
16E\LL	.	16e\LL	.	8b/L	p	8dd\L	.	8e\L	8e\L	.	8b\L	8dd\L	.	8ff#\L	8ddd\L	.
16G#X\	.	16e\	.	.	.	.	.	.	.	.	.	.	.	.	.	.
!	!	!	!	!	!	!	!	!	!	!	!LO:SIC:v:s=8g#\J	!LO:SIC:v:s=8b\J	!	!	!	!
16B\	.	16e\	.	8g#X/J	.	8b\J	.	8e\J	8e\J	.	8g\J	8cc#\J	.	8dd\J	8bb\J	.
16G#\JJ	.	16e\JJ	.	.	.	.	.	.	.	.	.	.	.	.	.	.
*	*	*Xtremolo	*	*	*	*	*	*	*	*	*	*	*	*	*	*
=	=	=	=	=	=	=	=	=	=	=	=	=	=	=	=	=
!	!	!	!	!LO:SIC:v:s=4g#/	!	!	!	!	!	!	!LO:SIC:v:s=4g#\	!	!	!	!	!
16A\LL	.	4e\	.	4g/	.	4b\	.	4e\	4e\	.	4g\	4b\	.	4dd\	4bb\	.
16E\	.	.	.	.	.	.	.	.	.	.	.	.	.	.	.	.
16C#\	.	.	.	.	.	.	.	.	.	.	.	.	.	.	.	.
16E\JJ	.	.	.	.	.	.	.	.	.	.	.	.	.	.	.	.
8A\	.	8e\	.	8a/	.	8a\	.	8A/	8e\	.	8a\	8cc#\	.	8ee\	8ccc#\	.
!	!	!LO:LB:g=original	!	!	!	!	!	!	!	!	!	!	!	!	!	!
=72:|!|:	=72:|!|:	=72:|!|:	=72:|!|:	=72:|!|:	=72:|!|:	=72:|!|:	=72:|!|:	=72:|!|:	=72:|!|:	=72:|!|:	=72:|!|:	=72:|!|:	=72:|!|:	=72:|!|:	=72:|!|:	=72:|!|:
!	!	!	!	!	!LO:DY:b:Bi:t=p&colon;	!	!LO:DY:b:Bi:t=p&colon;	!	!	!	!	!	!	!	!	!
8r	.	8c#\	.	8e/	p	8a/	p	8r	8r	.	8r	8r	.	8r	8r	.
=73	=73	=73	=73	=73	=73	=73	=73	=73	=73	=73	=73	=73	=73	=73	=73	=73
!	!LO:DY:b:Bi:t=p&colon;	!	!	!	!	!	!	!	!	!	!	!	!	!	!	!
4AA/	p	4c#\	.	4e/	.	4a/	.	2r	2r	.	2r	2r	.	2r	2r	.
4GG#X/	.	8d\L	.	8fn/L	.	8b-X/L	.	.	.	.	.	.	.	.	.	.
.	.	8d\J	.	8f/J	.	8b-/J	.	.	.	.	.	.	.	.	.	.
!LO:LB:g=original	!	!	!	!	!	!	!	!LO:LB:g=original	!	!	!	!	!	!	!	!
=74	=74	=74	=74	=74	=74	=74	=74	=74	=74	=74	=74	=74	=74	=74	=74	=74
*	*	*	*	*^	*	*	*	*	*	*	*	*	*	*	*	*
!LO:TX:t=P:problem=mixed beam	!LO:DY:b:Bi:t=for	!	!	!LO:TX:t=P:problem=mixed beam	!	!	!	!	!	!	!LO:DY:b:Bi:t=p&colon;	!	!	!	!	!	!
8AA/L	f	16c#\LL	.	16ryy	16e/LL	.	16a\LL	.	8r	8r	p	8r	8r	.	8r	8r	.
.	.	16g\JJ	.	16ee/	16cc#\JJ	.	16gg\JJ	.	.	.	.	.	.	.	.	.	.
!	!	!	!	!	!	!	!	!LO:DY:b:Bi:t=for	!	!	!	!	!	!	!	!	!
8A\	.	4g 4A\	.	4ee/	4cc#\	.	4gg\	f	8A/L	8e\L	.	8ee\L	8gg\L	.	8ee\L	8gg\L	.
8c#\	.	.	.	.	.	.	.	.	8A/	8e\	.	8ee\	8gg\	.	8ee\	8gg\	.
8A\J	.	8g 8A\	.	8rddyy	8cc#\	.	8ff#\	.	8A/J	8e\J	.	8ee\J	8gg\J	.	8ee\J	8gg\J	.
!	!	!	!	!	!	!	!	!	!	!	!	!	!	!	!	!LO:LB:g=original	!
=75	=75	=75	=75	=75	=75	=75	=75	=75	=75	=75	=75	=75	=75	=75	=75	=75	=75
.	.	.	.	.	.	.	8qqgg/	.	.	.	.	.	.	.	.	.	.
!	!	!	!LO:DY:b:Bi:t=p&colon;	!	!	!	!	!LO:DY:b:Bi:t=p&colon;	!	!	!	!	!	!	!	!	!
16D\LL	.	4f#\	p	4a/	4f#\	.	8ff#\L	p	4d\	4f#\	.	4dd\	4ff#\	.	4dd\	4ff#\	.
16E\	.	.	.	.	.	.	.	.	.	.	.	.	.	.	.	.	.
16F#\	.	.	.	.	.	.	(16ee\L	.	.	.	.	.	.	.	.	.	.
16D\JJ	.	.	.	.	.	.	16dd\JJ)	.	.	.	.	.	.	.	.	.	.
16G\LL	.	4B/	.	4g/	4reyy	.	16cc#\LL	.	4r	4r	.	8gg\	4bb\	.	8gg\	4bb\	.
16A\	.	.	.	.	.	.	16b\	.	.	.	.	.	.	.	.	.	.
16B\	.	.	.	.	.	.	16gg\	.	.	.	.	8r	.	.	8r	.	.
16G\JJ	.	.	.	.	.	.	16ee\JJ	.	.	.	.	.	.	.	.	.	.
*	*	*	*	*v	*v	*	*	*	*	*	*	*	*	*	*	*	*
!	!	!	!	!	!	!LO:LB:g=original	!	!	!	!	!LO:PB:g=original	!	!	!	!	!
=76	=76	=76	=76	=76	=76	=76	=76	=76	=76	=76	=76	=76	=76	=76	=76	=76
!LO:TX:t=P:problem=mixed beam	!	!	!	!	!	!	!	!	!	!	!	!	!	!	!	!
16A\LL	.	4A/	.	4f#/	.	4dd\	.	4d\	4f#\	.	4dd\	4ff#\	.	4dd\	4ff#\	.
16AA/	.	.	.	.	.	.	.	.	.	.	.	.	.	.	.	.
16C#/	.	.	.	.	.	.	.	.	.	.	.	.	.	.	.	.
16E/JJ	.	.	.	.	.	.	.	.	.	.	.	.	.	.	.	.
!	!	!LO:SIC:v:s=8A/	!	!	!	!	!	!	!	!	!	!	!	!LO:SIC:v:s=8cc#\	!	!
8A\	.	8G/	.	8e/	.	(8cc#\L	.	8A/	8e\	.	8cc#\	8ee\	.	8b\	8ee\	.
8r	.	8r	.	8r	.	8a\J)	.	8r	8r	.	8r	8r	.	8r	8r	.
!	!	!	!	!LO:PB:g=original	!	!	!	!	!	!	!	!	!	!LO:LB:g=original	!	!
=77	=77	=77	=77	=77	=77	=77	=77	=77	=77	=77	=77	=77	=77	=77	=77	=77
!	!LO:DY:b:Bi:t=pia	!	!	!	!	!	!	!LO:N:vis=0	!LO:N:vis=0	!	!	!	!	!	!	!
4D\	p	4d\	.	4f#/	.	4dd\	.	1r	1r	.	2r	2r	.	2r	2r	.
4AA/	.	4e\	.	4g/	.	8cc#\L	.	.	.	.	.	.	.	.	.	.
.	.	.	.	.	.	8cc#\J	.	.	.	.	.	.	.	.	.	.
=78	=78	=78	=78	=78	=78	=78	=78	=78	=78L	=78	=78	=78	=78	=78	=78	=78
4D\	.	8d\	.	8f#/	.	16dd\LL	.	.	.	.	4r	4r	.	4r	4r	.
.	.	.	.	.	.	16a\JJ	.	.	.	.	.	.	.	.	.	.
!	!	!	!	!	!LO:DY:a:Bi:t=for	!	!LO:DY:a:Bi:t=for	!	!	!	!	!	!	!	!	!
.	.	4d\	.	4f#/	f	4a\	f	.	.	.	.	.	.	.	.	.
8F#\L	.	.	.	.	.	.	.	.	.	.	8r	8r	.	8r	8r	.
8D\J	.	8d\	.	8f#/	.	8a\	.	.	.	.	8ff#\	8aa\	.	8ff#\	8aa\	.
!	!	!	!	!	!	!	!	!	!	!	!	!LO:LB:g=original	!	!	!	!
=79	=79	=79	=79	=79	=79	=79	=79	=79	=79	=79	=79	=79	=79	=79	=79	=79
!	!	!	!	!	!	!	!	!	!	!	!	!	!	!LO:N:vis=8	!	!
8G\L	.	4d\	.	4e/	.	4g/	.	4r	4r	.	4ee\	4gg\	.	4ee\L	4gg\	.
8E\J	.	.	.	.	.	.	.	.	.	.	.	.	.	.	.	.
!	!	!	!	!	!LO:DY:a:Bi:t=p&colon;	!	!	!	!	!	!	!	!	!	!	!
16AA/LL	.	8A/L	.	8c#/L	p	8e/L	.	8A/L	8e\L	.	8cc#\L	8ee\L	.	8cc#\	8ee\L	.
16BB/	.	.	.	.	.	.	.	.	.	.	.	.	.	.	.	.
16C#/	.	8A/J	.	8c#/J	.	8e/J	.	8A/J	8e\J	.	8cc#\J	8ee\J	.	8cc#\J	8ee\J	.
16AA/JJ	.	.	.	.	.	.	.	.	.	.	.	.	.	.	.	.
=80	=80	=80	=80	=80	=80	=80	=80	=80	=80	=80	=80	=80	=80	=80	=80	=80
16D\LL	.	4A/	.	4c#/	.	4e/	.	4A/	4e\	.	4cc#\	4ee\	.	4cc#\	4ee\	.
16F#\	.	.	.	.	.	.	.	.	.	.	.	.	.	.	.	.
16A\	.	.	.	.	.	.	.	.	.	.	.	.	.	.	.	.
16F#\JJ	.	.	.	.	.	.	.	.	.	.	.	.	.	.	.	.
8D\	.	8A/	.	8d/	.	8f#/	.	8d\	8f#\	.	8dd\	8dd\	.	8dd\	8dd\	.
=:|!	=:|!	=:|!	=:|!	=:|!	=:|!	=:|!	=:|!	=:|!	=:|!	=:|!	=:|!	=:|!	=:|!	=:|!	=:|!	=:|!
*-	*-	*-	*-	*-	*-	*-	*-	*-	*-	*-	*-	*-	*-	*-	*-	*-
!!!system-decoration: [(g1)][(g2)][(g3)]
!!!RDF**kern: | = vertical stroke
!!!ENC: Katarzyna Serwa
!!!END: 2022-03-10
!!!ENC: Andrzej Kubiczek
!!!END: 2020-08-22
!!!YEC: Copyright 2022 Narodowy Instytut Fryderyka Chopina (https://polishscores.org)
!!!YEM: Licence CC BY 4.0 (https://creativecommons.org/licenses/by/4.0)
